X: 41429
T: Twisting Of The Hay Rope
R: jig
M: 6/8
K: Gmajor
G>AB|c2E G3|E2D EG2|G>AB c2(A|A)B/c/A B3|A2G ED2|
E3 D>EG|A3 Bd2|BA<B G3|E2D EG2|G3 G3||
G>Bd|e2d e(g2|g3) e(d2|d3) ed2|B<AG (G3|
G>)AB c3|dB2 A2G|E<D(E E3)|D>EG A3|
Bd2 BA<B|G3 E2D|EG2 G3|G3 G3||

